packages/kaspersky-hexa-ui-icons/src/iconsSVGs/24/EugeneBlog.svg

<svg width="24" height="24" viewBox="0 0 24 24" fill="none" xmlns="http://www.w3.org/2000/svg">
<path d="M17.0913 14.0298L21.4636 20.0582H18.3833L14.6404 14.8248V13.3011L18.2839 8.46521H21.331L17.0913 14.0298Z" fill="black"/>
<path d="M9.38451 18.0598V20.0355C9.33007 20.0421 9.27513 20.0474 9.21996 20.0511C9.15062 20.0558 9.08055 20.0582 9.01024 20.0582H6.79247C5.94579 20.0582 5.13915 19.6913 4.63524 19.0925L2.88109 16.9681C2.59886 16.6205 2.43773 16.2148 2.43773 15.79V15.6548C1.8933 15.2493 1.55052 14.6119 1.55052 13.8779C1.55052 13.144 1.8933 12.4874 2.43773 12.1012V12.0819C2.43383 12.0781 2.42992 12.0751 2.42601 12.0725L2.41576 12.066C2.40502 12.0597 2.3972 12.0552 2.3972 12.0432C1.79247 11.0197 1.12718 9.14624 1.59081 7.71704C1.96923 6.51843 2.91429 6.20496 3.72948 5.93457L3.73241 5.93347C3.92162 5.87085 4.10375 5.8103 4.27025 5.74158C4.37938 5.69641 4.48168 5.64771 4.57469 5.59253C4.6599 5.54211 4.75194 5.48523 4.85057 5.42419C5.73363 4.87817 7.14842 4.00342 8.88939 4.47241C9.06835 4.52283 9.23314 4.58447 9.38451 4.65466V8.25317C8.04515 8.82532 6.69432 10.0653 6.38939 11.2708L6.32884 11.3286C6.32274 11.3286 6.31468 11.3304 6.30614 11.3324C6.29637 11.3346 6.28563 11.3369 6.27562 11.3372C6.27001 11.3373 6.26464 11.3368 6.26 11.3353C6.2556 11.3341 6.25145 11.3319 6.24803 11.3286C5.92552 11.1935 5.0183 10.7686 4.75609 9.72559C4.75609 9.72559 4.13109 10.2471 3.92967 11.2708V11.3093C3.90941 11.5411 3.88915 11.7728 3.86913 11.9852V12.0432C3.86913 12.1085 3.86449 12.1785 3.85961 12.2506C3.85424 12.3278 3.84886 12.4076 3.84886 12.4874L3.78856 13.5883C3.78856 13.598 3.77831 13.6028 3.76805 13.6027C3.75804 13.6027 3.74803 13.5978 3.74803 13.5883L3.48607 12.9509C3.18358 13.0862 2.98192 13.4338 2.98192 13.8586C2.98192 14.3801 3.30467 14.8051 3.70775 14.8051C3.72753 14.8051 3.74486 14.8051 3.76146 14.8044L3.79369 14.8021C3.8059 14.8008 3.8181 14.7988 3.83104 14.796C3.843 14.7935 3.8557 14.7902 3.86913 14.7858V15.4231C4.99803 15.114 5.4619 15.9445 5.88524 16.7943L5.9055 16.775C6.14745 16.3115 6.69164 16.0024 7.29662 16.0024H8.70775C8.94799 16.0024 9.1787 16.0511 9.38451 16.1389V17.3049L9.27245 17.084C9.17162 16.8909 8.94969 16.775 8.70775 16.775H7.29662C7.05467 16.775 6.83275 16.8909 6.73192 17.084L6.40941 17.7213C6.57079 17.9531 6.75218 18.127 6.99413 18.1848V17.8179C6.99413 17.6248 7.17552 17.4702 7.39745 17.4702H8.62718C8.84886 17.4702 9.0305 17.6248 9.0305 17.8179V18.2235C9.08177 18.2153 9.13109 18.201 9.1787 18.1818C9.20946 18.1692 9.23949 18.1544 9.26879 18.1377C9.29613 18.1223 9.3225 18.1053 9.34838 18.0868L9.38451 18.0598Z" fill="black"/>
<path d="M13.3484 20.0582H10.8642V19.413V15.7572V13.2524V12.3586V9.83594V6.14929V4.15918H13.3484V7.24377V16.0973V20.0582Z" fill="black"/>
<path d="M5.36913 12.9447C5.36913 12.3997 5.77758 12 6.28026 12C6.78295 12 7.19139 12.436 7.19139 12.9447C7.19139 13.4897 6.78295 13.8894 6.28026 13.8894C5.77758 13.8894 5.36913 13.4534 5.36913 12.9447Z" fill="black"/>
<path d="M8.67333 14.6387C8.26171 14.6387 7.93846 14.3457 7.93846 14.0203C8.14427 14.1504 8.37938 14.248 8.67333 14.248C8.96727 14.248 9.20262 14.1504 9.40819 14.0203C9.40819 14.3783 9.08495 14.6387 8.67333 14.6387Z" fill="black"/>
</svg>

<svg xmlns="http://www.w3.org/2000/svg" width="24" height="24" fill="none" viewBox="0 0 24 24"><path fill="#000" d="m17.091 14.03 4.372 6.028h-3.08l-3.743-5.233v-1.524l3.644-4.836h3.047zm-7.706 4.03v1.976a3.1 3.1 0 0 1-.374.023H6.793c-.847 0-1.653-.367-2.157-.966l-1.754-2.124c-.282-.348-.443-.753-.443-1.178v-.135c-.544-.405-.887-1.043-.887-1.777s.343-1.39.887-1.777v-.019a.1.1 0 0 0-.012-.009l-.01-.006c-.011-.006-.019-.011-.019-.023-.605-1.024-1.27-2.897-.806-4.326.378-1.199 1.324-1.512 2.139-1.782l.003-.001c.189-.063.371-.123.538-.192.109-.045.212-.094.305-.149.085-.05.177-.107.276-.168.883-.546 2.298-1.421 4.039-.952.179.05.344.112.495.182v3.599c-1.339.572-2.69 1.812-2.995 3.018l-.061.058a.1.1 0 0 0-.023.004.17.17 0 0 1-.03.005.05.05 0 0 1-.016-.002.03.03 0 0 1-.012-.007c-.322-.135-1.23-.56-1.492-1.603 0 0-.625.522-.826 1.545v.039a103 103 0 0 1-.061.676v.058c0 .065-.005.135-.009.207a3.4 3.4 0 0 0-.011.237l-.06 1.101c0 .01-.01.015-.021.014-.01 0-.02-.005-.02-.014l-.262-.637c-.302.135-.504.483-.504.908 0 .522.323.947.726.947.02 0 .037 0 .054-.001l.032-.002a.4.4 0 0 0 .037-.006.4.4 0 0 0 .038-.01v.637c1.129-.309 1.593.521 2.016 1.371l.02-.019c.242-.463.786-.773 1.391-.773h1.411c.24 0 .471.049.677.137v1.166l-.112-.221c-.101-.193-.323-.309-.565-.309H7.298c-.242 0-.464.116-.565.309l-.322.637c.161.232.343.406.585.464v-.367c0-.193.181-.348.403-.348h1.23c.222 0 .403.155.403.348v.406a.7.7 0 0 0 .148-.042.8.8 0 0 0 .09-.044.9.9 0 0 0 .08-.051zm3.963 1.998h-2.484V4.159h2.484z"/><path fill="#000" d="M5.369 12.945c0-.545.409-.945.911-.945s.911.436.911.945c0 .545-.408.945-.911.945s-.911-.436-.911-.945m3.304 1.694c-.412 0-.735-.293-.735-.618.206.13.441.228.735.228s.529-.098.735-.228c0 .358-.323.618-.735.618"/></svg>
